X:155
T:Mole catcher - Hoskin
%%VWML:SBG-1-2-304-0
F:http://www.vwml.org/record/SBG/1/2/304
Z:Original Sibelius transcriptions by M. & S. Graebe
M:6/8
I:linebreak $
K:F
V:1 treble nm="P1"
V:1
 F | FAc cdc | dcd A2 A | ddd AAA |$ GFE D | FF | F>EF D3 !fermata!d3 | A_BA GFE | D3- D2 x | %9

